X:1
T:Rigadoon
T:© Ikonos Online | online.ikonos.si
T:Rigadoon
T:H. Purcell
L:1/8
M:4/4
K:G
V:1 bass nm="Violoncello" snm="Vc."
V:1
!mf!"^Allegro" vG,2 G,2 F,2 E,2 | D,6 D,2 | E,2 E,2 F,2 D,2 | G,4 D,4 | G,2 G,2 F,2 E,2 | D,6 D,2 | %6
 E,2 E,2 F,2 D,2 | G,6 z2 |!f! vB,C D2 uB,C D2 | C2 B,2 A,2 D,2 | G,4 A,4 | B,6 z2 | %12
 vB,C D2 uB,C D2 | C2 B,2 A,2 D,2 | E,4 F,4 | G,6 z2 |!mf! vA,B, C2 uC4 | B,2 A,2 G,4 | %18
 uA,B, C2 B,2 A,2 | B,4 D4 | vA,B, C2 C4 | B,2 A,2 G,2 B,2 | E,4 F,4 | G,6 z2 | %24
!f! vG,2 G,2 F,2 E,2 | D,6 D,2 | E,2 E,2 F,2 D,2 | G,4 D,4 | vG,2 G,2 F,2 E,2 | D,6 D,2 | %30
 E,2 E,2 F,2 D,2 | G,6 z2 |] %32

